!!!OTL: Des Gesellen Feierabend (250b), S. 537
!!!id: T0439
**kern
*clefG2
*k[]
*G:
{4d
=1
4b
4b
4a
4a
=2
8g
8g
8g
8g
4d}
=3
{4d
=4
4g
4g
4b
8g
8b
=5
4dd}
2r
=6
{8g
8g
=7
4ee
4ee
4ee
4ee
=8
8dd
8dd
8dd
8dd
4b}
=9
{8dd
8ee
=10
4.dd
8cc
4cc
8dd
8cc
=11
4b}
2r
=12
{8g
8g
=13
4ee
4ee
4ee
4ee
=14
8dd
8dd
8dd
4dd
8b}
=15
{8dd
8ee
=16
4.dd
8cc
4cc
8dd
8cc
=17
4b}
2r
==
*-
!!!minrhy: 8
!!!meters: 4/4 ]  ZZ[6
!!!cut: Des Gesellen Feierabend (250b), S. 537
!!!reg: Luxemburg
!!!trd: Singendes Volk, Esch-Alzette, 1937 posth.
!!!rhy1: X_  X_X_X_X_  XXXXX_
!!!rhy2: X_  X_X_X_XX  X_0__
!!!key: T0439  08  G 4/4 ]  ZZ[6
!!!mod: SECHSTONSKALA DUR ?]  AMBITUS[9
!!!kad: -553333
!!!akz: 321-5_135_6653_543_6655_543_
!!!fot: 'a__b__c__as'c__as'
!!!for: 'a__b__av_c__d__c__
!!!fok: '^__/__^a_\__^a_\__
!! PHRAS[AUFTAKTIG]
!!!fkt: Berufslied
!!!bem1: Rodershausen, ? L. Peters junior, 1930,
!!!bem2: mitgeteilt, hhh Josef Bour (Lehrer)
!! THILL; Mathias
!! PR[22] 2K[3] 2G[11] 3K[8] 3G[8] 4A[3] 4Ü[0] 5A[0] 6K[0] 6G[0]
!! 7K[0] 7G[0] 8A[0] MEHR[0] SI[32] ABS[37] SR[14] SP[19]
!! ST[8] 2k[11] 2g[32] 3k[3] 3g[0] 4d[0] 4ü[0] 5d[0] 6k[0] 6g[0]
!! 7k[0] 7g[0] 8d[0] mehr[0] si[46] dm[-14] sr[43] sp[3]
!! 1F[15] 2F[53] 3F[23] 4F[0] LF[0] 2P[10] 3P[0] 4P[0] TRI[0] DF[4] AB[40]
!! TF[0] U3K[0] U3[0] U4[0] U4Ü[0] U5[0] U6K[0] U6[0] U7K[0] U7[0]
!! N1[3] N2K[0] N2[5] N3K[0] N3[24] N4[18] N4Ü[0] N5[26] N6K[0] N6[13]
!!!n7k: 0] N7[3] O1[8] O2K[0] O2[0] O3K[0] O3[0] HÖ[0
